fs/weather_fog_20_regular.svg

<svg viewBox="0 0 20 20" fill="none" xmlns="http://www.w3.org/2000/svg" height="1em" width="1em">
  <path d="M6.49956 15.0244H13.5004C13.7763 15.0244 14 15.2483 14 15.5244C14 15.7699 13.8233 15.974 13.5902 16.0164L13.5004 16.0244H6.49956C6.22366 16.0244 6 15.8006 6 15.5244C6 15.279 6.17672 15.0748 6.40976 15.0325L6.49956 15.0244ZM4.50391 13.0244H15.4961C15.7744 13.0244 16 13.2483 16 13.5244C16 13.7699 15.8217 13.974 15.5867 14.0164L15.4961 14.0244H4.50391C4.22561 14.0244 4 13.8006 4 13.5244C4 13.279 4.17826 13.0748 4.41333 13.0325L4.50391 13.0244ZM10 3.02441C12.4646 3.02441 13.8627 4.59801 14.066 6.4984L14.1282 6.4984C15.7143 6.4984 17 7.73544 17 9.26141C17 10.7874 15.7143 12.0244 14.1282 12.0244H5.87179C4.28575 12.0244 3 10.7874 3 9.26141C3 7.79196 4.19227 6.59043 5.69687 6.50344L5.93399 6.4984C6.13851 4.58552 7.53544 3.02441 10 3.02441ZM10 4.02441C8.35056 4.02441 6.9129 5.29471 6.9129 7.04936C6.9129 7.32738 6.65891 7.54554 6.36808 7.54553L5.81818 7.54552C4.81403 7.54552 4 8.32429 4 9.28497C4 10.2456 4.81403 11.0244 5.81818 11.0244H14.1818C15.186 11.0244 16 10.2456 16 9.28497C16 8.32429 15.186 7.54552 14.1818 7.54552L13.6319 7.54553C13.3411 7.54554 13.0871 7.32738 13.0871 7.04936C13.0871 5.2722 11.6494 4.02441 10 4.02441Z" fill="#212121"/>
</svg>

<svg viewBox="0 0 20 20" fill="none" xmlns="http://www.w3.org/2000/svg" height="1em" width="1em">
  <path d="M6.5 15.024h7a.5.5 0 0 1 .09.992l-.09.008h-7a.5.5 0 0 1-.09-.992l.09-.008Zm-1.996-2h10.992a.5.5 0 0 1 .091.992l-.09.008H4.503a.502.502 0 0 1-.504-.5.5.5 0 0 1 .413-.491l.09-.009Zm5.496-10c2.465 0 3.863 1.574 4.066 3.474h.062C15.714 6.498 17 7.735 17 9.261c0 1.526-1.286 2.763-2.872 2.763H5.872C4.286 12.024 3 10.787 3 9.261c0-1.469 1.192-2.67 2.697-2.758l.237-.005C6.139 4.586 7.535 3.024 10 3.024Zm0 1c-1.65 0-3.087 1.27-3.087 3.025 0 .278-.254.497-.545.497h-.55C4.814 7.546 4 8.324 4 9.285c0 .96.814 1.74 1.818 1.74h8.364c1.004 0 1.818-.78 1.818-1.74s-.814-1.74-1.818-1.74h-.55c-.29 0-.545-.218-.545-.496 0-1.777-1.438-3.025-3.087-3.025Z" fill="#212121"/>
</svg>
